X: 4300
M: C
L: 1/8
K: A
|:\
(EA,)A,2 EA,FA, | EA,A,A, A,2(Bc) |\
dcBA GABc |[1 B2B,2 B,2(CD) :|[2 A2A2 A2B2 |:\
c2ed c2dB | cAdB AGFE |\
[1 c2ec B2dB | cAdB GFED |\
   GABc dBGB | A2A2 A3B :|\
[2 c2ac c2gc | B2(dB) AGFE |\
   GABc dBGB | A2A2 A2(fg) |]
|:\
a2A,2 A,B,CD | ECDB, A,2(fg) |\
agfe dcBA | GABc B2B2 |\
agfe dcBA | dcde fgag |\
ecAc dBGB |[1 A2A2 A2(fg) |[2 A2A2 A2z2 |]


